X: 8858
T: Culfadda, The
R: reel
M: 4/4
K: Gmajor
BedB AcBA|GBAG EAGE|DB,~B,2 DEGA|BG~G2 ABcA|
BedB AcBA|GBAG EAGE|DB,~B,2 DEGA|1 BGAF G3A:|2 BGAF G3B||
|:~d3B cBAB|G2BG AGEG|DG~G2 eGdG|cBAG EAAB|
cBce dBAG|(3Bcd ef gdBG|GAGE DGBe|1 dBABG3B:|2 dBAB G4||

